vipt/assets/svgs/facebook.svg

<svg enable-background="new 0 0 1024 1024" viewBox="0 0 1024 1024" xmlns="http://www.w3.org/2000/svg"><path d="m589.4 1004.2v-346h115.5l22.1-143.2h-137.4v-92.9c0-39.1 19.2-77.4 80.7-77.4h62.3v-121.9s-56.7-9.7-110.9-9.7c-113.2 0-187.1 68.5-187.1 192.7v109.2h-125.8v143.2h125.8v346.2c-236.8-37.2-417.9-242.1-417.9-489.4 0-273.6 221.7-495.3 495.3-495.3s495.3 221.7 495.3 495.3c0 247.1-181.1 452-417.9 489.2z" fill="#fff"/></svg>

<?xml version="1.0" encoding="utf-8"?>
<!-- Generator: Adobe Illustrator 24.1.2, SVG Export Plug-In . SVG Version: 6.00 Build 0)  -->
<svg version="1.1" id="Layer_1" xmlns="http://www.w3.org/2000/svg" xmlns:xlink="http://www.w3.org/1999/xlink" x="0px" y="0px"
	 viewBox="0 0 1024 1024" style="enable-background:new 0 0 1024 1024;" xml:space="preserve">
<style type="text/css">
	.st0{fill:#FFFFFF;}
</style>
<path class="st0" d="M589.4,1004.2v-346h115.5L727,515H589.6v-92.9c0-39.1,19.2-77.4,80.7-77.4h62.3V222.8c0,0-56.7-9.7-110.9-9.7
	c-113.2,0-187.1,68.5-187.1,192.7V515H308.8v143.2h125.8v346.2C197.8,967.2,16.7,762.3,16.7,515C16.7,241.4,238.4,19.7,512,19.7
	s495.3,221.7,495.3,495.3C1007.3,762.1,826.2,967,589.4,1004.2L589.4,1004.2z"/>
</svg>
